X: 219
T: XIV.	 Op. 28
C: Fryderyk Chopin
%%abc-version 2.0
%%abcx-abcm2ps-target-version 5.9.1 (29 Sep 2008)
%%abc-creator hum2abc beta
%%abcx-conversion-date 2021/10/03 11:23:46
%%abc-edited-by Wojciech Jakubiak-Danek
%%abc-edited-by Zofia Niedbalska
%%abc-edited-by Emilia Ziętek
%%abcx-initial-encoding-date 2019-05-09
%%humdrum-veritas 2955792159
%%humdrum-veritas-data 1655739139
%%linebreak <none>
%%barnumbers 0
L: 1/8
M: C
N: Derived from 028_13-24-1a-C-014.krn
P: 24 PRÉLUDES POUR Le Piano
Q: "Allegro." 1/4=176
%%staves {1 2}
V: 1 clef=treble
V: 2 clef=bass
K: Gb
[V:1] (3E,B,G, (3CE,C (3=D,CF, (3B,D,B, | 
[V:2] (3E,,B,,G,, (3C,E,,C, (3=D,,C,F,, (3B,,D,,B,, | 
[V:1] (3E,B,G, (3CE,C (3=D,CF, (3B,D,B, | 
[V:2] (3E,,B,,G,, (3C,E,,C, (3=D,,C,F,, (3B,,D,,B,, | 
[V:1] (3E,B,G, (3CE,=C (3F,CA, (3E__B,D | 
[V:2] (3E,,B,,G,, (3C,E,,=C, (3F,,C,A,, (3E,__B,,D, | 
[V:1] (3G,D_B, (3EG,=E (3=A,E=C (3GDF | 
[V:2] (3G,,D,_B,, (3D,G,,=E, (3=A,,E,=C, (3G,D,F, | 
[V:1] (3B,FD (3GB,G (3=A,G=C (3FA,F | 
[V:2] (3B,,F,D, (3G,B,,G, (3=A,,G,=C, (3F,A,,F, | 
[V:1] (3B,FD (3G__B,G (3A,G=D (3F=CF | 
[V:2] (3B,,F,D, (3G,__B,,G, (3A,,G,=D, (3F,=C,F, | 
[V:1] (3A,_F_C (3=DA,D (3=G,DB, (3=FG,E | 
[V:2] (3A,,_F,_C, (3=D,A,,D, (3=G,,D,B,, (3=F,G,,E, | 
[V:1] (3F,D=G, (3=B,F,B, (3=E,B,G, (3DE,=C | 
[V:2] (3F,,D,=G,, (3=B,,F,,B,, (3=E,,B,,G,, (3D,E,,=C, | 
[V:1] (3_G,__E__B, (3=CG,C (3F,CA, (3_EF,D | 
[V:2] (3_G,,__E,__B,, (3=C,G,,C, (3F,,C,A,, (3_E,F,,D, | 
[V:1] (3E,_CF, (3=A,E,A, (3=D,A,F, (3B,G,B, | 
[V:2] (3E,,C,F,, (3=A,,E,,A,, (3=D,,A,,F,, (3B,,G,,B,, | 
[V:1] (3E,B,G, (3CE,C (3=D,CF, (3B,D,B, | 
[V:2] (3E,,B,,G,, (3C,E,,C, (3=D,,C,F,, (3B,,D,,B,, | 
[V:1] (3E,B,G, (3C=G,C (3=D,C_G, (3B,F,B, | 
[V:2] (3E,,B,,G,, (3C,=G,,C, (3=D,,C,_G,, (3B,,F,,B,, | 
[V:1] (3E,B,G, (3_CE,C (3F,D=A, (3DF,D | 
[V:2] (3E,,B,,G,, (3C,E,,C, (3F,,D,=A,, (3D,F,,D, | 
[V:1] (3G,D__B, (3__EG,E (3_B,EG, (3_F=G,=F | 
[V:2] (3G,,D,__B,, (3__E,G,,E, (3_B,,E,G,, (3_F,=G,,=F, | 
[V:1] (3A,CG, (3CF,C (3E,A,=D, (3G,E,G, | 
[V:2] (3A,,C,G,, (3C,F,,C, (3E,,A,,=D,, (3G,,E,,G,, | 
[V:1] (3A,,G,E, (3G,A,,G, (3B,,G,E, (3G,B,,G, | 
[V:2] (3A,,,G,,E,, (3G,,A,,,G,, (3B,,,G,,E,, (3G,,B,,,G,, | 
[V:1] (3E,B,E, (3CE,D (3E,B,E, (3CE,D | 
[V:2] (3E,,B,,E,, (3C,E,,D, (3E,,B,,E,, (3C,E,,D, | 
[V:1] (3E,DE, (3CE,B, (3E,A,E, (3B,E,B, | 
[V:2] (3E,,D,E,, (3C,E,,B,, (3E,,A,,E,, (3B,,E,,B,, | 
[V:1] E,2z2z4 |]  
[V:2] E,,,2z2z4 |]
